X: 20692
T: SICILIAN AIR. __ Known as "HOME! SWEET HOME!"
O: Sung by Miss M. Tree.
Q: "Andante"
%R: _
B: "Edinburgh Repository of Music" v.2 p.69 #2
F: http://digital.nls.uk/special-collections-of-printed-music/pageturner.cfm?id=87776133
Z: 2015 John Chambers <jc:trillian.mit.edu>
M: 2/4
L: 1/8
K: D
d |\
(f>g) (g>a) | (a2 f) a | (g>f) (ge) | f3 d |\
(f>g) (g>a) | (a2 f) a | g>f (ge) | d3 "_P."a |\
(d'>c') (b>a) | a2 fa | (g>f) (ge) | {^e}f3 a |
(d'>c') (b>a) | a2 fa | a g2 e | d4 |\
a4 | (g2 e2) | .d2 .e2 | f3 "_a tempo."a |\
d'>c' b>a | a2 (fa) | "_Largo."(ab) (ge) | d2 d |]
